X:1
T: The Autograph
C:
R:Reel
I:speed 232
Q:232
K:A
M:4/4
L:1/8
|:E2|Ac BA GB AG|Ac e3E FG|Ac BA GB AG|Ac e3c de|
((3f=f^f) df (3(e^de) ce|((3dcd) Bd ((3cBc) Ac|((3BAB) ((3cBA) ((3GAB) ((3EFG)|((3ABc) ((3efg) a2:|
|:^A2|B2BG EG Bd|cA ec ((3agf) ((3edc)|((3BdB) ((3GBG) EG Bd|cA ec ((3agf) ((3edc)|
fd AF ((3DFA) ((3dfa)|ecAE ((3CEA) ((3cea)|fd cB ec BG|A2c2 A2:|
